poi/svg/1006.svg

<?xml version="1.0" encoding="UTF-8" standalone="no"?>
<svg
   xmlns:dc="http://purl.org/dc/elements/1.1/"
   xmlns:cc="http://creativecommons.org/ns#"
   xmlns:rdf="http://www.w3.org/1999/02/22-rdf-syntax-ns#"
   xmlns:svg="http://www.w3.org/2000/svg"
   xmlns="http://www.w3.org/2000/svg"
   xmlns:sodipodi="http://sodipodi.sourceforge.net/DTD/sodipodi-0.dtd"
   xmlns:inkscape="http://www.inkscape.org/namespaces/inkscape"
   inkscape:version="1.0 (4035a4fb49, 2020-05-01)"
   sodipodi:docname="1006.svg"
   id="svg20"
   version="1.2"
   viewBox="0 0 42.519639 42.519639"
   height="14.999999mm"
   width="14.999999mm">
  <metadata
     id="metadata24">
    <rdf:RDF>
      <cc:Work
         rdf:about="">
        <dc:format>image/svg+xml</dc:format>
        <dc:type
           rdf:resource="http://purl.org/dc/dcmitype/StillImage" />
        <dc:title>Qt SVG Document</dc:title>
      </cc:Work>
    </rdf:RDF>
  </metadata>
  <sodipodi:namedview
     inkscape:current-layer="svg20"
     inkscape:window-maximized="1"
     inkscape:window-y="-9"
     inkscape:window-x="-9"
     inkscape:cy="28.346482"
     inkscape:cx="28.346482"
     inkscape:zoom="18.047943"
     fit-margin-bottom="0"
     fit-margin-right="0"
     fit-margin-left="0"
     fit-margin-top="0"
     showgrid="false"
     id="namedview22"
     inkscape:window-height="1013"
     inkscape:window-width="1920"
     inkscape:pageshadow="2"
     inkscape:pageopacity="0"
     guidetolerance="10"
     gridtolerance="10"
     objecttolerance="10"
     borderopacity="1"
     bordercolor="#666666"
     pagecolor="#ffffff" />
  <title
     id="title2">Qt SVG Document</title>
  <desc
     id="desc4">Generated with Qt</desc>
  <defs
     id="defs6" />
  <g
     transform="translate(5.25984,5.25984)"
     id="g18"
     stroke-linejoin="bevel"
     stroke-linecap="square"
     fill-rule="evenodd"
     stroke-width="1"
     stroke="#000000"
     fill="none">
    <g
       id="g10"
       font-style="normal"
       font-weight="400"
       font-size="7.8px"
       font-family="'MS Shell Dlg 2'"
       stroke="none"
       fill-opacity="1"
       fill="#1f78b4">
      <path
         id="path8"
         d="M 37.2598,16 C 37.2598,27.7415 27.7415,37.2598 16,37.2598 4.25851,37.2598 -5.25984,27.7415 -5.25984,16 -5.25984,4.25851 4.25851,-5.25984 16,-5.25984 27.7415,-5.25984 37.2598,4.25851 37.2598,16"
         fill-rule="evenodd"
         vector-effect="non-scaling-stroke" />
    </g>
    <g
       id="g14"
       font-style="normal"
       font-weight="400"
       font-size="7.8px"
       font-family="'MS Shell Dlg 2'"
       transform="translate(15.4331,12.0315)"
       stroke="none"
       fill-opacity="1"
       fill="#ffffff">
      <path
         id="path12"
         d="m -0.0297852,-1.34912 c -1.0917948,0 -1.9526348,-0.32894 -2.5825148,-0.98682 -0.40593,-0.40592 -0.68588,-0.80835 -0.83985,-1.20727 -0.15397,-0.39893 -0.23096,-0.85734 -0.23096,-1.37525 0,-1.0638 0.35694,-1.91064 1.07081,-2.54052 0.68587,-0.68588 1.54671,-1.02881 2.5825148,-1.02881 0.9938152,0 1.8686552,0.34293 2.6245152,1.02881 0.71386,0.62988 1.0708,1.47672 1.0708,2.54052 0,0.51791 -0.08049,0.97632 -0.24146,1.37525 -0.16097,0.39892 -0.43742,0.80135 -0.82934,1.20727 -0.65788,0.65788 -1.53272,0.98682 -2.6245152,0.98682 M 5.93311,1.2334 C 5.38721,1.42936 4.91829,1.63932 4.52637,1.86328 4.17643,2.07324 3.85799,2.3077 3.57104,2.56665 3.2841,2.8256 3.14063,3.09505 3.14063,3.375 v 11.5688 c 0.05598,0.336 0.22745,0.6264 0.5144,0.8714 0.28695,0.2449 0.60539,0.4444 0.95532,0.5984 0.40593,0.1679 0.84684,0.3219 1.32276,0.4619 v 0.5669 h -11.8628 v -0.5669 c 0.51791,-0.168 0.99382,-0.3709 1.42774,-0.6089 0.33593,-0.196 0.65438,-0.4094 0.95532,-0.6404 0.30094,-0.2309 0.45142,-0.4864 0.45142,-0.7663 V 0.750488 H 5.93311 V 1.2334"
         fill-rule="evenodd"
         vector-effect="none" />
    </g>
    <g
       id="g16"
       font-style="normal"
       font-weight="400"
       font-size="7.8px"
       font-family="'MS Shell Dlg 2'"
       stroke="none"
       fill-opacity="1"
       fill="#1f78b4" />
  </g>
</svg>

<?xml version="1.0" encoding="UTF-8" standalone="no"?>
<svg width="11.2889mm" height="11.2889mm"
 viewBox="0 0 32 32"
 xmlns="http://www.w3.org/2000/svg" xmlns:xlink="http://www.w3.org/1999/xlink"  version="1.2" baseProfile="tiny">
<title>Qt SVG Document</title>
<desc>Generated with Qt</desc>
<defs>
</defs>
<g fill="none" stroke="black" stroke-width="1" fill-rule="evenodd" stroke-linecap="square" stroke-linejoin="bevel" >

<g fill="#1f78b4" fill-opacity="1" stroke="none" transform="matrix(1,0,0,1,0,0)"
font-family="MS Shell Dlg 2" font-size="7.8" font-weight="400" font-style="normal" 
>
<path vector-effect="non-scaling-stroke" fill-rule="evenodd" d="M37.2598,16 C37.2598,27.7415 27.7415,37.2598 16,37.2598 C4.25851,37.2598 -5.25984,27.7415 -5.25984,16 C-5.25984,4.25851 4.25851,-5.25984 16,-5.25984 C27.7415,-5.25984 37.2598,4.25851 37.2598,16 "/>
</g>

<g fill="#ffffff" fill-opacity="1" stroke="none" transform="matrix(1,0,0,1,15.4331,12.0315)"
font-family="MS Shell Dlg 2" font-size="7.8" font-weight="400" font-style="normal" 
>
<path vector-effect="none" fill-rule="evenodd" d="M-0.0297852,-1.34912 C-1.12158,-1.34912 -1.98242,-1.67806 -2.6123,-2.33594 C-3.01823,-2.74186 -3.29818,-3.14429 -3.45215,-3.54321 C-3.60612,-3.94214 -3.68311,-4.40055 -3.68311,-4.91846 C-3.68311,-5.98226 -3.32617,-6.8291 -2.6123,-7.45898 C-1.92643,-8.14486 -1.06559,-8.48779 -0.0297852,-8.48779 C0.96403,-8.48779 1.83887,-8.14486 2.59473,-7.45898 C3.30859,-6.8291 3.66553,-5.98226 3.66553,-4.91846 C3.66553,-4.40055 3.58504,-3.94214 3.42407,-3.54321 C3.2631,-3.14429 2.98665,-2.74186 2.59473,-2.33594 C1.93685,-1.67806 1.06201,-1.34912 -0.0297852,-1.34912 M5.93311,1.2334 C5.38721,1.42936 4.91829,1.63932 4.52637,1.86328 C4.17643,2.07324 3.85799,2.3077 3.57104,2.56665 C3.2841,2.8256 3.14063,3.09505 3.14063,3.375 L3.14063,14.9438 C3.19661,15.2798 3.36808,15.5702 3.65503,15.8152 C3.94198,16.0601 4.26042,16.2596 4.61035,16.4136 C5.01628,16.5815 5.45719,16.7355 5.93311,16.8755 L5.93311,17.4424 L-5.92969,17.4424 L-5.92969,16.8755 C-5.41178,16.7075 -4.93587,16.5046 -4.50195,16.2666 C-4.16602,16.0706 -3.84757,15.8572 -3.54663,15.6262 C-3.24569,15.3953 -3.09521,15.1398 -3.09521,14.8599 L-3.09521,0.750488 L5.93311,0.750488 L5.93311,1.2334"/>
</g>

<g fill="#1f78b4" fill-opacity="1" stroke="none" transform="matrix(1,0,0,1,0,0)"
font-family="MS Shell Dlg 2" font-size="7.8" font-weight="400" font-style="normal" 
>
</g>
</g>
</svg>
